X: 41279
T: Tullaghan Lassies, The
R: reel
M: 4/4
K: Adorian
e2 A (3AAA edcd|BGdG Bcdg|e2 A (3AAA edce|dBgB Aa^ga|
e2 A (3AAA edcd|BGdG Bcdg|ecAB (3ccc {d}(c2|d2) (~B2 {d}c)AA:|
agfa gedc|BGdG Bcdg|agfa gfga{b}|aged eAAg|
agfa gedc|BGdG Bcdg|edef g2ba|gedB A2:|

